scalable/apps/com.github.neithern.g4music.svg

<?xml version="1.0" encoding="UTF-8" standalone="no"?>
<svg
   width="64"
   height="64"
   version="1.1"
   id="svg10"
   sodipodi:docname="com.github.neithern.g4music.svg"
   inkscape:version="1.2.2 (b0a8486541, 2022-12-01)"
   xmlns:inkscape="http://www.inkscape.org/namespaces/inkscape"
   xmlns:sodipodi="http://sodipodi.sourceforge.net/DTD/sodipodi-0.dtd"
   xmlns="http://www.w3.org/2000/svg"
   xmlns:svg="http://www.w3.org/2000/svg">
  <defs
     id="defs14" />
  <sodipodi:namedview
     id="namedview12"
     pagecolor="#505050"
     bordercolor="#eeeeee"
     borderopacity="1"
     inkscape:showpageshadow="0"
     inkscape:pageopacity="0"
     inkscape:pagecheckerboard="0"
     inkscape:deskcolor="#505050"
     showgrid="false"
     inkscape:zoom="15.921875"
     inkscape:cx="29.895976"
     inkscape:cy="32.031403"
     inkscape:window-width="2560"
     inkscape:window-height="1361"
     inkscape:window-x="0"
     inkscape:window-y="0"
     inkscape:window-maximized="1"
     inkscape:current-layer="svg10" />
  <circle
     cx="32"
     cy="32"
     r="27"
     fill="#5ed698"
     stroke-width=".96429"
     id="circle2"
     style="fill:#7afa99" />
  <path
     d="m33.085 43.951c6.5979-0.59485 11.463-6.408 10.866-12.984l-8e-3 -0.08712c-0.59681-6.576-6.4292-11.425-13.027-10.83-6.5979 0.59485-11.463 6.408-10.866 12.984l8e-3 0.08714c0.59681 6.576 6.4292 11.425 13.027 10.83z"
     fill="#48ad79"
     id="path4"
     style="fill:#44c367" />
  <path
     d="m32.361 28.016c2.1993 0.1983 3.8209 2.136 3.622 4.3281l-0.0026 0.029c-0.1989 2.192-2.1431 3.8083-4.3424 3.61-2.1993-0.1983-3.8209-2.136-3.6219-4.3281l0.0026-0.029c0.1989-2.192 2.1431-3.8083 4.3424-3.61z"
     fill="#f8f8f2"
     id="path6" />
  <path
     d="m34 9.0918v1.0039a22 22 0 0 1 19.904 19.904h1.0039a23 23 0 0 0-20.908-20.908zm0 5.0195v1.0078a17 17 0 0 1 14.881 14.881h1.0078a18 18 0 0 0-15.889-15.889zm-24.857 19.889a23 23 0 0 0 20.857 20.857v-1a22 22 0 0 1-19.857-19.857h-1zm5.0137 0a18 18 0 0 0 15.844 15.844v-1.0176a17 17 0 0 1-14.826-14.826h-1.0176z"
     fill="#48ad79"
     fill-rule="evenodd"
     stop-color="#282a36"
     stroke-linecap="round"
     stroke-linejoin="round"
     stroke-opacity=".2"
     stroke-width=".48936"
     style="paint-order:stroke fill markers;fill:#44c367"
     id="path8" />
</svg>

<svg xmlns="http://www.w3.org/2000/svg" width="64" height="64"><circle cx="32" cy="32" r="27" fill="#5ed698"/><path fill="#48ad79" d="M33.085 43.951c6.598-.595 11.463-6.408 10.866-12.984l-.008-.087c-.597-6.576-6.43-11.425-13.027-10.83-6.598.595-11.463 6.408-10.866 12.984l.008.087c.597 6.576 6.43 11.425 13.027 10.83z"/><path fill="#f8f8f2" d="M32.361 28.016a3.99 3.99 0 0 1 3.622 4.328l-.003.03a3.995 3.995 0 0 1-4.342 3.61 3.989 3.989 0 0 1-3.622-4.329l.003-.029a3.995 3.995 0 0 1 4.342-3.61z"/><path fill="#48ad79" fill-rule="evenodd" d="M34 9.092v1.004A22 22 0 0 1 53.904 30h1.004A23 23 0 0 0 34 9.092zm0 5.02v1.007A17 17 0 0 1 48.881 30h1.008a18 18 0 0 0-15.89-15.889zM9.143 34A23 23 0 0 0 30 54.857v-1A22 22 0 0 1 10.143 34h-1zm5.014 0A18 18 0 0 0 30 49.844v-1.017A17 17 0 0 1 15.175 34h-1.018z" style="paint-order:stroke fill markers"/></svg>
